X: 1
T: Jig du Dimanche apr\`es-midi
C: Nicholas Williams
R: jig
Z: 2015 John Chambers <jc:trillian.mit.edu>
M: 6/8
L: 1/8
K: A
|:\
"A"ABc ecB | ABG AEE | "D"FAd ded | "A"cBA "E"B3 |\
"A"ABc ecB | ABG AEE | "D"DAd "A"cBA | "E"BAG "A"A3 :|
"A"cde aba | agf "D"d3 | Bcd "Bm7"fef | fga "E"fee |\
"A"cde aba | agf "D"d3 | Bcd "A"cBA | "E"BAG "A"A3 ||
"A"cde aba | agf "D"d3 | Bcd "Bm7"f2f | fga "E"fee |\
"A"ABc "E/g#"abg | "D/f#"fge "A/e"dec | "D"Bcd "A/e"cBA | "E"BAG "A"A3 |]

%%sep 1 1 500
